public/img/power-icon.svg

<svg width="40" height="40" viewBox="0 0 40 40" fill="none" xmlns="http://www.w3.org/2000/svg">
<g opacity="0.5">
<path d="M28.7616 10.4801C29.4368 10.4801 30.1246 10.5293 30.789 10.5775C31.4347 10.6237 32.1016 10.6721 32.738 10.6721C32.9744 10.6721 33.1911 10.6658 33.4009 10.6524C33.4045 10.6521 33.4081 10.6521 33.4114 10.6521C33.4808 10.6521 33.5452 10.6884 33.5794 10.7494C33.6154 10.8133 33.6125 10.8921 33.5708 10.9527C33.1558 11.5608 33.1986 12.9522 33.2443 14.4254C33.3052 16.3918 33.3678 18.4253 32.4291 19.3969C32.0761 19.7623 31.6024 19.9472 31.0215 19.9472C30.4611 19.9472 30.1271 19.0448 29.7409 18.0004C29.3925 17.0599 28.9596 15.8893 28.4492 15.8893C26.7281 15.8893 26.1137 18.9205 27.5292 21.4219L30.6126 26.7019C30.934 27.252 30.7494 27.9625 30.2013 28.285C30.0245 28.3891 29.8233 28.4443 29.6196 28.4443C29.2784 28.4443 28.9578 28.2948 28.7378 28.0347L24.195 23.1678C22.5751 22.8392 21.0465 22.6723 19.6504 22.6723C18.0763 22.6723 16.326 22.8825 14.446 23.2972L10.0101 28.0346C9.79 28.295 9.47004 28.4442 9.12953 28.4442C8.85942 28.4442 8.59668 28.3478 8.38918 28.1733C7.95639 27.8089 7.84947 27.1902 8.13562 26.7018L11.0461 21.7177C11.2606 18.9209 11.0103 18.0114 10.7616 17.7418C10.6871 17.6612 10.6203 17.6517 10.5764 17.6517C10.3203 17.6517 10.1019 17.7485 9.90822 17.9468C9.20837 18.666 9.05612 20.5431 9.07679 21.5584C9.07787 21.5674 9.07859 21.5772 9.07859 21.5869C9.07859 21.6931 8.99311 21.7795 8.88694 21.7795H8.8855C8.88118 21.7795 8.87704 21.7791 8.87272 21.7791C8.67801 21.7654 8.49156 21.7578 8.3109 21.7502C7.54283 21.7184 6.93619 21.6931 6.61189 21.2792C6.38821 20.9935 6.34178 20.5677 6.46703 19.9396C6.47224 19.9089 6.4789 19.8673 6.48628 19.8208C6.55881 19.364 6.70925 18.4146 7.23006 17.5724C7.88458 16.5139 8.8963 15.9758 10.2334 15.9758C10.341 15.9758 10.4504 15.9792 10.5618 15.9862C10.9977 16.0131 11.3515 16.2047 11.6633 16.3734C11.956 16.532 12.2327 16.6822 12.5401 16.6822C12.6842 16.6822 12.8295 16.6501 12.9831 16.5845C14.0515 16.1304 15.2619 15.9097 16.6823 15.9097C17.2641 15.9097 17.89 15.9462 18.5962 16.0213C18.8033 16.0431 19.0038 16.0545 19.1922 16.0545H19.1929C21.0015 16.0541 21.7325 15.0278 22.5798 13.8388C23.2316 12.9238 23.9701 11.8875 25.3069 11.1969C26.2548 10.7076 27.3523 10.4794 28.7617 10.4794L28.7616 10.4801ZM28.7617 9C27.1093 9 25.7974 9.27992 24.6324 9.88092C22.9775 10.736 22.0921 11.9792 21.3806 12.9781C20.5355 14.1642 20.1925 14.5743 19.1926 14.5747C19.0559 14.5747 18.9078 14.5662 18.7517 14.5496C17.9925 14.469 17.3159 14.4299 16.6824 14.4299C15.1182 14.4299 13.7622 14.6709 12.5424 15.1661C12.4856 15.1372 12.4197 15.1015 12.3646 15.0719C11.984 14.8658 11.4123 14.5566 10.6536 14.5093C10.5145 14.5005 10.373 14.4959 10.2334 14.4959C8.37765 14.4959 6.90597 15.29 5.97732 16.7924C5.30069 17.8868 5.11137 19.0781 5.03058 19.587L5.02104 19.6466L5.01618 19.677C4.93286 20.0967 4.72177 21.2593 5.45296 22.193C6.19744 23.1432 7.33587 23.1902 8.25077 23.2278C8.31627 23.2307 8.38268 23.2336 8.45016 23.2365L6.86383 25.9533C6.21256 27.0654 6.45551 28.4762 7.44202 29.3065C7.91421 29.7038 8.51348 29.9231 9.12967 29.9231C9.88856 29.9231 10.6057 29.5962 11.1047 29.0252L15.2042 24.6472C16.8123 24.3178 18.3059 24.151 19.6508 24.151C20.8178 24.151 22.0926 24.2777 23.4458 24.5288L27.6425 29.0236C28.1417 29.5954 28.8594 29.9229 29.6199 29.9229C30.0856 29.9229 30.5449 29.7976 30.9473 29.5603C32.1965 28.8257 32.6173 27.2076 31.8848 25.9532L28.8063 20.6827C28.2729 19.7364 28.1718 18.8205 28.2351 18.1841C28.2812 18.3058 28.3229 18.4195 28.3586 18.5147C28.8632 19.8794 29.4351 21.4261 31.0212 21.4261C32.002 21.4261 32.855 21.0804 33.487 20.4263C34.8601 19.005 34.7874 16.6538 34.7176 14.3799C34.6917 13.5404 34.6481 12.1446 34.8061 11.7595C35.1441 11.244 35.1682 10.5645 34.863 10.022C34.5693 9.49795 34.0129 9.172 33.4111 9.172C33.3798 9.172 33.3434 9.17345 33.3092 9.17543C33.1303 9.18645 32.9435 9.19205 32.7377 9.19205C32.16 9.19205 31.5258 9.14654 30.9122 9.10247C30.241 9.05402 29.4984 9.00002 28.7631 9.00002" fill="#48494D"/>
</g>
</svg>

<svg width="40" height="40" fill="none" xmlns="http://www.w3.org/2000/svg"><path d="M28.76 10.48c.68 0 1.36.05 2.03.1.64.04 1.31.1 1.95.1.23 0 .45-.01.66-.03h.01a.2.2 0 0 1 .16.3c-.41.61-.37 2-.33 3.48.07 1.96.13 4-.81 4.97-.35.36-.83.55-1.4.55s-.9-.9-1.29-1.95c-.35-.94-.78-2.11-1.3-2.11-1.71 0-2.33 3.03-.91 5.53l3.08 5.28a1.16 1.16 0 0 1-.99 1.74c-.34 0-.66-.15-.88-.4l-4.54-4.87c-1.62-.33-3.15-.5-4.55-.5-1.57 0-3.32.21-5.2.63L10 28.03a1.15 1.15 0 0 1-1.62.14 1.16 1.16 0 0 1-.25-1.47l2.9-4.98c.22-2.8-.03-3.7-.28-3.98-.07-.08-.14-.09-.18-.09a.9.9 0 0 0-.67.3c-.7.72-.85 2.6-.83 3.6v.04c0 .1-.09.19-.2.19l-.57-.03c-.77-.03-1.37-.06-1.7-.47-.22-.29-.27-.71-.14-1.34 0-.03 0-.07.02-.12.07-.46.22-1.4.74-2.25a3.3 3.3 0 0 1 3-1.6c.11 0 .22 0 .33.02.44.02.8.21 1.1.38.3.16.57.31.88.31.14 0 .29-.03.44-.1a9.31 9.31 0 0 1 3.7-.67c.58 0 1.21.04 1.92.11l.6.03c1.8 0 2.53-1.02 3.38-2.21a7.62 7.62 0 0 1 2.73-2.64 7.31 7.31 0 0 1 3.45-.72Zm0-1.48c-1.65 0-2.96.28-4.13.88-1.65.86-2.54 2.1-3.25 3.1-.84 1.18-1.19 1.6-2.19 1.6l-.44-.03c-.76-.08-1.43-.12-2.07-.12-1.56 0-2.92.24-4.14.74l-.18-.1a4 4 0 0 0-2.13-.57c-1.85 0-3.32.79-4.25 2.3a7.5 7.5 0 0 0-.95 2.79v.06l-.01.03c-.09.42-.3 1.58.43 2.51.75.95 1.89 1 2.8 1.04h.2l-1.59 2.72a2.63 2.63 0 0 0 4.24 3.08l4.1-4.38c1.61-.33 3.1-.5 4.45-.5 1.17 0 2.44.13 3.8.38l4.2 4.5a2.62 2.62 0 0 0 3.3.53 2.64 2.64 0 0 0 .93-3.6l-3.07-5.28a4.3 4.3 0 0 1-.57-2.5l.12.33c.5 1.37 1.08 2.92 2.66 2.92.98 0 1.83-.35 2.47-1 1.37-1.43 1.3-3.78 1.23-6.05-.03-.84-.07-2.24.09-2.62.33-.52.36-1.2.05-1.74a1.67 1.67 0 0 0-1.55-.84l-.57.01c-.58 0-1.21-.04-1.83-.09-.67-.05-1.41-.1-2.15-.1" fill="#48494D" opacity=".5"/></svg>
